X:688
T:Mrs. Colonel Neynoe
R:Reel
B:The Athole Collection
M:C|
L:1/8
K:F
B|AFAc f2 fc|cfAf gGGB|AcAF fafd|cfeg fFF:|
|:B|ABcf efga|fdgf ecce|fcdf cacA|BgGB AFF:|

